Numix/16/status/indicator-keyboard-Bn-4.svg

<?xml version="1.0" encoding="UTF-8" standalone="no"?>
<svg
   xmlns:dc="http://purl.org/dc/elements/1.1/"
   xmlns:cc="http://creativecommons.org/ns#"
   xmlns:rdf="http://www.w3.org/1999/02/22-rdf-syntax-ns#"
   xmlns:svg="http://www.w3.org/2000/svg"
   xmlns="http://www.w3.org/2000/svg"
   xmlns:sodipodi="http://sodipodi.sourceforge.net/DTD/sodipodi-0.dtd"
   xmlns:inkscape="http://www.inkscape.org/namespaces/inkscape"
   viewBox="0 0 16 16"
   id="svg2"
   version="1.1"
   inkscape:version="0.91 r13725"
   sodipodi:docname="indicator-keyboard-Bn-4.svg">
  <metadata
     id="metadata14">
    <rdf:RDF>
      <cc:Work
         rdf:about="">
        <dc:format>image/svg+xml</dc:format>
        <dc:type
           rdf:resource="http://purl.org/dc/dcmitype/StillImage" />
      </cc:Work>
    </rdf:RDF>
  </metadata>
  <defs
     id="defs12" />
  <sodipodi:namedview
     pagecolor="#ffffff"
     bordercolor="#666666"
     borderopacity="1"
     objecttolerance="10"
     gridtolerance="10"
     guidetolerance="10"
     inkscape:pageopacity="0"
     inkscape:pageshadow="2"
     inkscape:window-width="640"
     inkscape:window-height="480"
     id="namedview10"
     showgrid="false"
     inkscape:zoom="14.75"
     inkscape:cx="8"
     inkscape:cy="8"
     inkscape:window-x="65"
     inkscape:window-y="24"
     inkscape:window-maximized="0"
     inkscape:current-layer="svg2" />
  <path
     style="fill:#ececec;fill-opacity:1"
     d="M 1.5996094 0 C 0.71320937 2.9605947e-16 0 0.71320937 0 1.5996094 L 0 14.400391 C 2.9605947e-16 15.286791 0.71320937 16 1.5996094 16 L 14.400391 16 C 15.286791 16 16 15.286791 16 14.400391 L 16 1.5996094 C 16 0.71320937 15.286791 0 14.400391 0 L 1.5996094 0 z M 3.0625 4.8046875 C 3.3985 4.8046875 3.715625 4.8327187 4.015625 4.8867188 C 4.321625 4.9407188 4.5884063 5.03025 4.8164062 5.15625 C 5.0444062 5.28225 5.2254219 5.4501562 5.3574219 5.6601562 C 5.4954219 5.8641562 5.5644531 6.1197813 5.5644531 6.4257812 C 5.5644531 6.7617813 5.4767344 7.0490625 5.3027344 7.2890625 C 5.1347344 7.5230625 4.9071406 7.6853906 4.6191406 7.7753906 C 4.7991406 7.8173906 4.9632813 7.8770781 5.1132812 7.9550781 C 5.2632813 8.0330781 5.3957656 8.1357187 5.5097656 8.2617188 C 5.6237656 8.3817188 5.7114844 8.5309375 5.7714844 8.7109375 C 5.8374844 8.8849375 5.8691406 9.0957969 5.8691406 9.3417969 C 5.8691406 9.9297971 5.6359688 10.379406 5.1679688 10.691406 C 4.6999687 10.997406 3.978 11.150391 3 11.150391 C 2.898 11.150391 2.7766719 11.144813 2.6386719 11.132812 C 2.5066719 11.126813 2.3686094 11.113703 2.2246094 11.095703 C 2.0866094 11.083703 1.954125 11.068781 1.828125 11.050781 C 1.702125 11.026781 1.5958594 11.002516 1.5058594 10.978516 L 1.5058594 4.9765625 C 1.6138594 4.9465625 1.7332344 4.9222969 1.8652344 4.9042969 C 1.9972344 4.8802969 2.1315312 4.8616094 2.2695312 4.8496094 C 2.4135313 4.8316094 2.5515937 4.8204531 2.6835938 4.8144531 C 2.8215937 4.8084531 2.9485 4.8046875 3.0625 4.8046875 z M 3.0625 5.3261719 C 2.8405 5.3261719 2.6501406 5.3337031 2.4941406 5.3457031 C 2.3441406 5.3577031 2.2191875 5.372625 2.1171875 5.390625 L 2.1171875 7.5859375 L 3.3046875 7.5859375 C 3.5266875 7.5859375 3.7375469 7.5710156 3.9355469 7.5410156 C 4.1335469 7.5050156 4.3032656 7.4453281 4.4472656 7.3613281 C 4.5972656 7.2713281 4.7148281 7.1537656 4.7988281 7.0097656 C 4.8828281 6.8597656 4.9257813 6.6713594 4.9257812 6.4433594 C 4.9257812 6.2393594 4.8810156 6.0676875 4.7910156 5.9296875 C 4.7010156 5.7856875 4.5703438 5.668125 4.4023438 5.578125 C 4.2403438 5.488125 4.0463594 5.426625 3.8183594 5.390625 C 3.5903594 5.348625 3.3385 5.3261719 3.0625 5.3261719 z M 8.9296875 6.3535156 C 9.2836875 6.3535156 9.5765469 6.4038594 9.8105469 6.5058594 C 10.050547 6.6078594 10.238953 6.7552656 10.376953 6.9472656 C 10.520953 7.1332656 10.623594 7.3570938 10.683594 7.6210938 C 10.743594 7.8850938 10.773438 8.1761406 10.773438 8.4941406 L 10.773438 11.095703 L 10.189453 11.095703 L 10.189453 8.6835938 C 10.189453 8.3535938 10.165188 8.0756562 10.117188 7.8476562 C 10.075188 7.6196563 10.000578 7.4330625 9.8925781 7.2890625 C 9.7905781 7.1450625 9.6525156 7.0424219 9.4785156 6.9824219 C 9.3105156 6.9164219 9.0958906 6.8847656 8.8378906 6.8847656 C 8.5618906 6.8847656 8.3231406 6.8996875 8.1191406 6.9296875 C 7.9211406 6.9596875 7.7924219 6.9857656 7.7324219 7.0097656 L 7.7324219 11.095703 L 7.1464844 11.095703 L 7.1464844 6.6054688 C 7.3204844 6.5574688 7.5556094 6.5033594 7.8496094 6.4433594 C 8.1436094 6.3833594 8.5036875 6.3535156 8.9296875 6.3535156 z M 2.1171875 8.1074219 L 2.1171875 10.564453 C 2.2071875 10.576453 2.3414844 10.591375 2.5214844 10.609375 C 2.7014844 10.621375 2.8843125 10.628906 3.0703125 10.628906 C 3.3463125 10.628906 3.6130937 10.610219 3.8710938 10.574219 C 4.1350938 10.538219 4.3664531 10.472953 4.5644531 10.376953 C 4.7624531 10.280953 4.9229687 10.148469 5.0429688 9.9804688 C 5.1629688 9.8124687 5.2226562 9.5960312 5.2226562 9.3320312 C 5.2226562 9.0920313 5.1797031 8.8942813 5.0957031 8.7382812 C 5.0117031 8.5762813 4.8923281 8.449375 4.7363281 8.359375 C 4.5803281 8.263375 4.3881562 8.1981094 4.1601562 8.1621094 C 3.9381563 8.1261094 3.6881094 8.1074219 3.4121094 8.1074219 L 2.1171875 8.1074219 z M 13.59375 8.8417969 L 13.992188 8.8417969 L 13.992188 11.486328 L 14.494141 11.486328 L 14.494141 11.796875 L 13.992188 11.796875 L 13.992188 12.896484 L 13.617188 12.896484 L 13.617188 11.796875 L 11.78125 11.796875 L 11.78125 11.5625 C 11.85145 11.3753 11.947466 11.163687 12.072266 10.929688 C 12.200966 10.695688 12.345959 10.456637 12.505859 10.210938 C 12.665759 9.9652374 12.840144 9.7261874 13.027344 9.4921875 C 13.214544 9.2542875 13.40265 9.0367969 13.59375 8.8417969 z M 13.617188 9.2695312 C 13.480688 9.4099312 13.341572 9.5706063 13.201172 9.7539062 C 13.060772 9.9372063 12.927528 10.129225 12.798828 10.328125 C 12.674028 10.523125 12.556466 10.719069 12.447266 10.917969 C 12.338066 11.116869 12.245975 11.306928 12.171875 11.486328 L 13.617188 11.486328 L 13.617188 9.2695312 z "
     id="path4" />
</svg>

<svg xmlns="http://www.w3.org/2000/svg" viewBox="0 0 16 16">
 <path d="m 1.6 0 c -0.886 0 -1.6 0.713 -1.6 1.6 l 0 12.801 c 0 0.886 0.713 1.6 1.6 1.6 l 12.801 0 c 0.886 0 1.6 -0.713 1.6 -1.6 l 0 -12.801 c 0 -0.886 -0.713 -1.6 -1.6 -1.6 l -12.801 0 z m 1.463 4.805 c 0.336 0 0.653 0.028 0.953 0.082 c 0.306 0.054 0.573 0.144 0.801 0.27 c 0.228 0.126 0.409 0.294 0.541 0.504 c 0.138 0.204 0.207 0.46 0.207 0.766 c 0 0.336 -0.088 0.623 -0.262 0.863 c -0.168 0.234 -0.396 0.396 -0.684 0.486 c 0.18 0.042 0.344 0.102 0.494 0.18 c 0.15 0.078 0.282 0.181 0.396 0.307 c 0.114 0.12 0.202 0.269 0.262 0.449 c 0.066 0.174 0.098 0.385 0.098 0.631 c 0 0.588 -0.233 1.038 -0.701 1.35 c -0.468 0.306 -1.19 0.459 -2.168 0.459 c -0.102 0 -0.223 -0.006 -0.361 -0.018 c -0.132 -0.006 -0.27 -0.019 -0.414 -0.037 c -0.138 -0.012 -0.27 -0.027 -0.396 -0.045 c -0.126 -0.024 -0.232 -0.048 -0.322 -0.072 l 0 -6 c 0.108 -0.03 0.227 -0.054 0.359 -0.072 c 0.132 -0.024 0.266 -0.043 0.404 -0.055 c 0.144 -0.018 0.282 -0.029 0.414 -0.035 c 0.138 -0.006 0.265 -0.01 0.379 -0.01 z m 0 0.521 c -0.222 0 -0.412 0.008 -0.568 0.02 c -0.15 0.012 -0.275 0.027 -0.377 0.045 l 0 2.195 l 1.188 0 c 0.222 0 0.433 -0.015 0.631 -0.045 c 0.198 -0.036 0.368 -0.096 0.512 -0.18 c 0.15 -0.09 0.268 -0.208 0.352 -0.352 c 0.084 -0.15 0.127 -0.338 0.127 -0.566 c 0 -0.204 -0.045 -0.376 -0.135 -0.514 c -0.09 -0.144 -0.221 -0.262 -0.389 -0.352 c -0.162 -0.09 -0.356 -0.152 -0.584 -0.188 c -0.228 -0.042 -0.48 -0.064 -0.756 -0.064 z m 5.867 1.027 c 0.354 0 0.647 0.05 0.881 0.152 c 0.24 0.102 0.428 0.249 0.566 0.441 c 0.144 0.186 0.247 0.41 0.307 0.674 c 0.06 0.264 0.09 0.555 0.09 0.873 l 0 2.602 l -0.584 0 l 0 -2.412 c 0 -0.33 -0.024 -0.608 -0.072 -0.836 c -0.042 -0.228 -0.117 -0.415 -0.225 -0.559 c -0.102 -0.144 -0.24 -0.247 -0.414 -0.307 c -0.168 -0.066 -0.383 -0.098 -0.641 -0.098 c -0.276 0 -0.515 0.015 -0.719 0.045 c -0.198 0.03 -0.327 0.056 -0.387 0.08 l 0 4.086 l -0.586 0 l 0 -4.49 c 0.174 -0.048 0.409 -0.102 0.703 -0.162 c 0.294 -0.06 0.654 -0.09 1.08 -0.09 z m -6.813 1.754 l 0 2.457 c 0.09 0.012 0.224 0.027 0.404 0.045 c 0.18 0.012 0.363 0.02 0.549 0.02 c 0.276 0 0.543 -0.019 0.801 -0.055 c 0.264 -0.036 0.495 -0.101 0.693 -0.197 c 0.198 -0.096 0.359 -0.228 0.479 -0.396 c 0.12 -0.168 0.18 -0.384 0.18 -0.648 c 0 -0.24 -0.043 -0.438 -0.127 -0.594 c -0.084 -0.162 -0.203 -0.289 -0.359 -0.379 c -0.156 -0.096 -0.348 -0.161 -0.576 -0.197 c -0.222 -0.036 -0.472 -0.055 -0.748 -0.055 l -1.295 0 z m 11.477 0.734 l 0.398 0 l 0 2.645 l 0.502 0 l 0 0.311 l -0.502 0 l 0 1.1 l -0.375 0 l 0 -1.1 l -1.836 0 l 0 -0.234 c 0.07 -0.187 0.166 -0.399 0.291 -0.633 c 0.129 -0.234 0.274 -0.473 0.434 -0.719 c 0.16 -0.246 0.334 -0.485 0.521 -0.719 c 0.187 -0.238 0.375 -0.455 0.566 -0.65 z m 0.023 0.428 c -0.136 0.14 -0.276 0.301 -0.416 0.484 c -0.14 0.183 -0.274 0.375 -0.402 0.574 c -0.125 0.195 -0.242 0.391 -0.352 0.59 c -0.109 0.199 -0.201 0.389 -0.275 0.568 l 1.445 0 l 0 -2.217 z" style="fill:#ececec;fill-opacity:1"/>
</svg>
